X:146
T:Old Lancaster Hornpipe
R:Triple Hornpipe
M:3/2
S: Greg Stephens collection
L:1/4
K:D
BAG | F>E Df ed | e E2 B AG | F>E Df ed/c/ | d3 :|
|:BAG | FA GB A/B/c/d/|e E2B AG |FA GB AB/c/ |d3:|
|:fga | f>e df ed | c e2 f ga | f>e df ed/c/ | d3 :|
%%vskip .5cm
